cssgg/userlane.svg

<svg
  width="24"
  height="24"
  viewBox="0 0 24 24"
  fill="none"
  xmlns="http://www.w3.org/2000/svg"
>
  <path d="M15 4H21V10H15V4Z" fill="currentColor" />
  <path
    d="M3 12C3 16.9706 7.02944 21 12 21C16.9706 21 21 16.9706 21 12H17C17 14.7614 14.7614 17 12 17C9.23858 17 7 14.7614 7 12H3Z"
    fill="currentColor"
  />
  <path
    d="M6 10C7.65685 10 9 8.65685 9 7C9 5.34315 7.65685 4 6 4C4.34315 4 3 5.34315 3 7C3 8.65685 4.34315 10 6 10Z"
    fill="currentColor"
  />
</svg>

<svg viewBox="0 0 24 24" xmlns="http://www.w3.org/2000/svg"><g><path d="M15 4h6v6h-6V4Z"/><path d="M3 12c0 4.97 4.02 9 9 9 4.97 0 9-4.03 9-9h-4c0 2.76-2.24 5-5 5 -2.77 0-5-2.24-5-5H3Z"/><path d="M6 10c1.65 0 3-1.35 3-3 0-1.66-1.35-3-3-3C4.34 4 3 5.34 3 7c0 1.65 1.34 3 3 3Z"/></g></svg>
